X: 209
T:The Shepherd's Dochter
S:Kinsley, The Oxford Book of Ballads
M:C
L:1/8
Q:1/4=100
K:D
 A   |d>e f(e/f/) af          e(d/B/)|d>e  f(e/f/)   a3
 z/A/|d>e f(e/f/) ae          e(f/e/)|dB  (B/c/d/e/) f3||
 z/e/|dB  Bd     (e/d/)(e/f/) e(f/e/)|dB  (B/c/d/e/) f2
fe   |dB  Bd     (e/d/)(e/f/) e(f/e/)|dB  (B/c/d/e/) f3|]

It's sometimes said that you don't want to end a lullaby on the tonal
centre because the finality of that might wake the baby up:

